.forestry/content/images/linkedin.svg

<svg clip-rule="evenodd" fill-rule="evenodd" stroke-linejoin="round" stroke-miterlimit="2" viewBox="0 0 512 512" xmlns="http://www.w3.org/2000/svg"><g fill="#0077b5" fill-rule="nonzero"><path d="m511.872 512v-.021h.128v-187.776c0-91.862-19.776-162.624-127.168-162.624-51.627 0-86.272 28.33-100.416 55.189h-1.493v-46.613h-101.824v341.824h106.026v-169.259c0-44.565 8.448-87.659 63.638-87.659 54.378 0 55.189 50.859 55.189 90.518v166.421z" transform="matrix(.6875 0 0 .6875 80 80)"/><path d="m85.808 196.996h72.9815625v235.004h-72.9815625z" stroke-width=".6875"/><path d="m61.483 0c-33.942 0-61.483 27.541-61.483 61.483 0 33.941 27.541 62.058 61.483 62.058 33.941 0 61.482-28.117 61.482-62.058-.021-33.942-27.562-61.483-61.482-61.483z" transform="matrix(.6875 0 0 .6875 80 80)"/></g></svg>

<?xml version="1.0" encoding="UTF-8" standalone="no"?>
<!DOCTYPE svg PUBLIC "-//W3C//DTD SVG 1.1//EN" "http://www.w3.org/Graphics/SVG/1.1/DTD/svg11.dtd">
<svg width="100%" height="100%" viewBox="0 0 512 512" version="1.1" xmlns="http://www.w3.org/2000/svg" xmlns:xlink="http://www.w3.org/1999/xlink" xml:space="preserve" xmlns:serif="http://www.serif.com/" style="fill-rule:evenodd;clip-rule:evenodd;stroke-linejoin:round;stroke-miterlimit:2;">
    <g>
        <g transform="matrix(0.6875,0,0,0.6875,80,80)">
            <path d="M511.872,512L511.872,511.979L512,511.979L512,324.203C512,232.341 492.224,161.579 384.832,161.579C333.205,161.579 298.56,189.909 284.416,216.768L282.923,216.768L282.923,170.155L181.099,170.155L181.099,511.979L287.125,511.979L287.125,342.72C287.125,298.155 295.573,255.061 350.763,255.061C405.141,255.061 405.952,305.92 405.952,345.579L405.952,512L511.872,512Z" style="fill:rgb(0,119,181);fill-rule:nonzero;"/>
        </g>
        <g transform="matrix(0.6875,0,0,0.6875,80,80)">
            <rect x="8.448" y="170.176" width="106.155" height="341.824" style="fill:rgb(0,119,181);fill-rule:nonzero;"/>
        </g>
        <g transform="matrix(0.6875,0,0,0.6875,80,80)">
            <path d="M61.483,0C27.541,0 0,27.541 0,61.483C0,95.424 27.541,123.541 61.483,123.541C95.424,123.541 122.965,95.424 122.965,61.483C122.944,27.541 95.403,0 61.483,0Z" style="fill:rgb(0,119,181);fill-rule:nonzero;"/>
        </g>
    </g>
</svg>
